static/img/feathers-logo-horizontal-inverted.svg

<svg height="217" viewBox="0 0 838 217" width="838" xmlns="http://www.w3.org/2000/svg"><g fill="none" fill-rule="evenodd" transform="translate(0 .92)"><path d="m.43 0h837v216h-837z"/><g fill="#f2f4fa" fill-rule="nonzero"><path d="m21.0831096 132v-39.4053358h30.8716962v-9.2866078h-30.8716962v-29.4912545h38.0248941v-9.2866078h-49.4449118v87.4698059zm81.5715554 1.129452c8.198987 0 15.059364-2.070662 20.58113-6.211987 5.521767-4.141325 9.202945-9.516682 11.043534-16.126069h-12.298481c-1.33861 3.848504-3.660262 6.923124-6.964955 9.22386-3.304694 2.300736-7.425104 3.451104-12.361228 3.451104-6.023746 0-11.1481129-1.903336-15.3731012-5.710008-4.2249882-3.806673-6.5466401-9.098366-6.9649558-15.87508h54.966679c.250989-2.4262309.376484-4.726967.376484-6.9022085 0-6.274735-1.359526-11.9010807-4.078578-16.8790371-2.719052-4.9779565-6.588472-8.889208-11.60826-11.7337545s-10.792544-4.2668198-17.318268-4.2668198c-6.6930511 0-12.6122178 1.4431891-17.7575005 4.3295672s-9.1401973 7.0067874-11.9847438 12.3612279-4.2668198 11.587344-4.2668198 18.6987103c0 7.1113665 1.4641048 13.3651855 4.3923145 18.7614575s6.9649558 9.558513 12.1102385 12.486723c5.1452827 2.928209 10.9807863 4.392314 17.5065111 4.392314zm21.208604-40.5347878h-43.4211663c.5856419-6.5257244 2.9072939-11.6291755 6.9649558-15.3103534 4.057662-3.6811779 8.9728711-5.5217668 14.7456275-5.5217668 4.01583 0 7.676092.8157156 10.980786 2.4471466 3.304694 1.6314312 5.919167 4.0158304 7.843419 7.153198 1.924252 3.1373675 2.886378 6.8812927 2.886378 11.2317756zm55.092173 40.5347878c5.940083 0 11.148113-1.317694 15.62409-3.953083 4.475978-2.635388 7.843419-5.960998 10.102324-9.976828v12.800459h11.545512v-68.7710956h-11.545512v12.54947c-2.175242-3.9321673-5.479936-7.1950295-9.914082-9.7885866s-9.663092-3.8903357-15.686837-3.8903357c-6.107409 0-11.650091 1.4641048-16.628048 4.3923145-4.977956 2.9282097-8.889208 7.048619-11.733754 12.361228-2.844547 5.3126089-4.26682 11.482765-4.26682 18.5104682 0 6.9440402 1.422273 13.1351122 4.26682 18.5732152 2.844546 5.438104 6.734882 9.663092 11.671007 12.674965s10.457891 4.517809 16.5653 4.517809zm2.384399-10.039576c-4.266819 0-8.157155-1.024873-11.671007-3.07462-3.513851-2.049747-6.316566-5.019788-8.408145-8.910124-2.091578-3.890335-3.137367-8.470892-3.137367-13.7416692 0-5.1871143 1.045789-9.7049235 3.137367-13.5534276 2.091579-3.8485041 4.894294-6.7767138 8.408145-8.784629 3.513852-2.0079152 7.404188-3.0118728 11.671007-3.0118728 4.26682 0 8.178072 1.0248734 11.733755 3.0746202 3.555683 2.0497467 6.379314 4.9988722 8.470892 8.8473763 2.091579 3.8485041 3.137368 8.3663133 3.137368 13.5534276 0 5.1871145-1.045789 9.7258395-3.137368 13.6161745-2.091578 3.890336-4.915209 6.860377-8.470892 8.910124s-7.466935 3.07462-11.733755 3.07462zm86.089365 8.910124v-9.663092h-8.408145c-3.513852 0-5.981914-.690221-7.404188-2.070662-1.422273-1.380442-2.133409-3.743926-2.133409-7.090451v-40.5347881h17.945742v-9.4121025h-17.945742v-17.3182686h-11.420018v17.3182686h-8.910124v9.4121025h8.910124v40.5347881c0 6.693051 1.589599 11.503681 4.768798 14.431891 3.1792 2.928209 7.947998 4.392314 14.306396 4.392314zm25.224434 0v-38.0248941c0-7.1950295 1.777842-12.6749647 5.333525-16.4398057s8.345398-5.6472615 14.369143-5.6472615c5.940083 0 10.625218 1.8196732 14.055407 5.4590195 3.430188 3.6393463 5.145282 8.8892079 5.145282 15.7495848v38.903357h11.294523v-40.5347881c0-6.3583981-1.192199-11.7546702-3.576599-16.1888163-2.384399-4.4341461-5.668177-7.7597556-9.851334-9.9768286-4.183156-2.2170731-8.868292-3.3256096-14.055406-3.3256096-4.936125 0-9.391187.962126-13.365185 2.8863781-3.973999 1.9242521-7.090451 4.6433039-9.349356 8.1571555v-33.883569h-11.420017v92.866078zm98.638835 1.129452c8.198987 0 15.059364-2.070662 20.58113-6.211987 5.521767-4.141325 9.202945-9.516682 11.043534-16.126069h-12.298481c-1.33861 3.848504-3.660262 6.923124-6.964955 9.22386-3.304694 2.300736-7.425104 3.451104-12.361228 3.451104-6.023746 0-11.148113-1.903336-15.373101-5.710008-4.224988-3.806673-6.54664-9.098366-6.964956-15.87508h54.966679c.250989-2.4262309.376484-4.726967.376484-6.9022085 0-6.274735-1.359526-11.9010807-4.078578-16.8790371-2.719052-4.9779565-6.588472-8.889208-11.60826-11.7337545s-10.792544-4.2668198-17.318268-4.2668198c-6.693051 0-12.612218 1.4431891-17.7575 4.3295672-5.145283 2.8863781-9.140198 7.0067874-11.984744 12.3612279-2.844547 5.3544405-4.26682 11.587344-4.26682 18.6987103 0 7.1113665 1.464105 13.3651855 4.392314 18.7614575 2.92821 5.396272 6.964956 9.558513 12.110239 12.486723 5.145283 2.928209 10.980786 4.392314 17.506511 4.392314zm21.208604-40.5347878h-43.421166c.585642-6.5257244 2.907294-11.6291755 6.964956-15.3103534s8.972871-5.5217668 14.745627-5.5217668c4.01583 0 7.676092.8157156 10.980786 2.4471466 3.304694 1.6314312 5.919167 4.0158304 7.843419 7.153198 1.924252 3.1373675 2.886378 6.8812927 2.886378 11.2317756zm38.275883 39.4053358v-37.3974206c0-13.8880801 6.40023-20.8321202 19.200689-20.8321202h3.011873v-11.7965018c-5.35444 0-9.893165 1.0876207-13.616175 3.2628622-3.723009 2.1752415-6.588471 5.2289458-8.596387 9.1611131v-11.1690283h-11.420017v68.7710956zm59.735478 1.129452c4.936124 0 9.307523-.857547 13.114196-2.572641 3.806672-1.715094 6.755798-4.078578 8.847376-7.090451 2.091578-3.011872 3.137368-6.400229 3.137368-10.16507-.083664-4.183157-1.234032-7.571514-3.451105-10.165071s-4.873377-4.538725-7.968913-5.8355035c-3.095536-1.2967786-7.111366-2.614473-12.047491-3.9530831-3.932168-1.0876207-7.006788-2.0706625-9.223861-2.9491254-2.217073-.878463-4.057662-2.0497468-5.521767-3.5138516-1.464104-1.4641049-2.196157-3.3256096-2.196157-5.5845142 0-2.8445465 1.213116-5.1452827 3.639346-6.9022085 2.426231-1.7569258 5.689094-2.6353887 9.788587-2.6353887 4.434146 0 7.968914 1.0876207 10.604302 3.2628622 2.635389 2.1752415 4.078578 5.0616196 4.329567 8.6591343h11.420018c-.334652-6.6930507-2.844546-11.9638281-7.529682-15.8123322-4.685135-3.8485041-10.834376-5.7727562-18.447721-5.7727562-4.936125 0-9.328439.8575471-13.176943 2.5726414-3.848504 1.7150942-6.818546 4.0367461-8.910124 6.9649558s-3.137368 6.1492403-3.137368 9.6630919c0 4.4341461 1.150369 8.010745 3.451105 10.7297968 2.300736 2.7190519 5.061619 4.7687986 8.28265 6.1492404 3.221031 1.3804417 7.383271 2.7399676 12.486723 4.0785776 5.60543 1.422273 9.746755 2.865462 12.423975 4.329567s4.01583 3.702094 4.01583 6.713967c0 2.928209-1.254947 5.35444-3.764841 7.278692s-5.940082 2.886378-10.290565 2.886378c-4.685136 0-8.470892-1.08762-11.35727-3.262862-2.886379-2.175241-4.496894-4.977956-4.831546-8.408145h-11.796502c.250989 4.183157 1.589599 7.885251 4.01583 11.106281 2.426231 3.221031 5.730925 5.730925 9.914081 7.529682 4.183157 1.798758 8.910124 2.698136 14.180902 2.698136z" transform="translate(264.052 19.761)"/><path d="m107.78 7.74c55.29 0 100.12 44.82 100.12 100.12s-44.83 100.12-100.12 100.12-100.12-44.82-100.12-100.12 44.83-100.12 100.12-100.12m0-7.66c-59.43 0-107.78 48.35-107.78 107.78s48.35 107.78 107.78 107.78 107.78-48.35 107.78-107.78-48.35-107.78-107.78-107.78m17.54 21.49c-8.78-1.6-30.02 30.66-37.04 50.3-.53 1.49-1.76 6.95-1.76 8.38 0 0 5.5 11.83 7.03 14.61-2.55-1.33-7.85-11.58-7.85-11.58-2.55 4.87-5 27.23-4.21 31.38 0 0 5.69 8.47 7.9 10.59-3.03-1.01-8.14-7.88-8.14-7.88-.96 2.95-.77 9.1-.32 11.18 3.83 5.59 8.94 6.23 8.94 6.23s-5.59 55.73 2.87 59.88c5.27-1.12 6.55-62.27 6.55-62.27s6.39.48 7.82-1.12c3.25-2.24 10.8-25.45 10.91-28.8 0 0-8.77 1.64-13.04 3.3 3.22-3.2 13.51-5.35 13.51-5.35 2.79-3.35 8.67-26.14 9.26-33.17.15-1.76.49-3.92.23-7.07 0 0-8.37 1.83-10.12 1.2 1.77-.2 10.33-3.49 10.33-3.49 1.52-13.64 1.99-35.43-2.87-36.32zm-30.63 144.57c-.67 16.42-1.09 21.05-1.78 24.92-.32.72-.64.84-.96-.08-2.93-13.47-2.71-114.88 30.66-161.03-19.41 35.45-28.24 103.46-27.92 136.19z"/></g></g></svg>

<?xml version="1.0" encoding="UTF-8"?>
<svg width="838px" height="217px" viewBox="0 0 838 217" version="1.1" xmlns="http://www.w3.org/2000/svg" xmlns:xlink="http://www.w3.org/1999/xlink">
    <title>feathers-logo-horizontal-inverted</title>
    <g id="Page-1" stroke="none" stroke-width="1" fill="none" fill-rule="evenodd">
        <g id="feathers-logo-horizontal-inverted" transform="translate(0.000000, 0.920000)">
            <rect id="Rectangle" x="0.43" y="0" width="837" height="216"></rect>
            <g id="lettering" transform="translate(264.052000, 19.761000)" fill="#F2F4FA" fill-rule="nonzero">
                <path d="M21.0831096,132 L21.0831096,92.5946642 L51.9548058,92.5946642 L51.9548058,83.3080564 L21.0831096,83.3080564 L21.0831096,53.8168019 L59.1080037,53.8168019 L59.1080037,44.5301941 L9.6630919,44.5301941 L9.6630919,132 L21.0831096,132 Z M102.654665,133.129452 C110.853652,133.129452 117.714029,131.05879 123.235795,126.917465 C128.757562,122.77614 132.43874,117.400783 134.279329,110.791396 L134.279329,110.791396 L121.980848,110.791396 C120.642238,114.6399 118.320586,117.71452 115.015893,120.015256 C111.711199,122.315992 107.590789,123.46636 102.654665,123.46636 C96.630919,123.46636 91.5065521,121.563024 87.2815638,117.756352 C83.0565756,113.949679 80.7349237,108.657986 80.316608,101.881272 L80.316608,101.881272 L135.283287,101.881272 C135.534276,99.4550411 135.659771,97.154305 135.659771,94.9790635 C135.659771,88.7043285 134.300245,83.0779828 131.581193,78.1000264 C128.862141,73.1220699 124.992721,69.2108184 119.972933,66.3662719 C114.953145,63.5217254 109.180389,62.0994521 102.654665,62.0994521 C95.9616139,62.0994521 90.0424472,63.5426412 84.8971645,66.4290193 C79.7518818,69.3153974 75.7569672,73.4358067 72.9124207,78.7902472 C70.0678742,84.1446877 68.6456009,90.3775912 68.6456009,97.4889575 C68.6456009,104.600324 70.1097057,110.854143 73.0379154,116.250415 C75.9661251,121.646687 80.0028712,125.808928 85.1481539,128.737138 C90.2934366,131.665347 96.1289402,133.129452 102.654665,133.129452 Z M123.863269,92.5946642 L80.4421027,92.5946642 C81.0277446,86.0689398 83.3493966,80.9654887 87.4070585,77.2843108 C91.4647205,73.6031329 96.3799296,71.762544 102.152686,71.762544 C106.168516,71.762544 109.828778,72.5782596 113.133472,74.2096906 C116.438166,75.8411218 119.052639,78.225521 120.976891,81.3628886 C122.901143,84.5002561 123.863269,88.2441813 123.863269,92.5946642 L123.863269,92.5946642 Z M178.955442,133.129452 C184.895525,133.129452 190.103555,131.811758 194.579532,129.176369 C199.05551,126.540981 202.422951,123.215371 204.681856,119.199541 L204.681856,119.199541 L204.681856,132 L216.227368,132 L216.227368,63.2289044 L204.681856,63.2289044 L204.681856,75.7783744 C202.506614,71.8462071 199.20192,68.5833449 194.767774,65.9897878 C190.333628,63.3962307 185.104682,62.0994521 179.080937,62.0994521 C172.973528,62.0994521 167.430846,63.5635569 162.452889,66.4917666 C157.474933,69.4199763 153.563681,73.5403856 150.719135,78.8529946 C147.874588,84.1656035 146.452315,90.3357596 146.452315,97.3634628 C146.452315,104.307503 147.874588,110.498575 150.719135,115.936678 C153.563681,121.374782 157.454017,125.59977 162.390142,128.611643 C167.326267,131.623516 172.848033,133.129452 178.955442,133.129452 Z M181.339841,123.089876 C177.073022,123.089876 173.182686,122.065003 169.668834,120.015256 C166.154983,117.965509 163.352268,114.995468 161.260689,111.105132 C159.169111,107.214797 158.123322,102.63424 158.123322,97.3634628 C158.123322,92.1763485 159.169111,87.6585393 161.260689,83.8100352 C163.352268,79.9615311 166.154983,77.0333214 169.668834,75.0254062 C173.182686,73.017491 177.073022,72.0135334 181.339841,72.0135334 C185.606661,72.0135334 189.517913,73.0384068 193.073596,75.0881536 C196.629279,77.1379003 199.45291,80.0870258 201.544488,83.9355299 C203.636067,87.784034 204.681856,92.3018432 204.681856,97.4889575 C204.681856,102.676072 203.636067,107.214797 201.544488,111.105132 C199.45291,114.995468 196.629279,117.965509 193.073596,120.015256 C189.517913,122.065003 185.606661,123.089876 181.339841,123.089876 Z M267.429206,132 L267.429206,122.336908 L259.021061,122.336908 C255.507209,122.336908 253.039147,121.646687 251.616873,120.266246 C250.1946,118.885804 249.483464,116.52232 249.483464,113.175795 L249.483464,113.175795 L249.483464,72.6410069 L267.429206,72.6410069 L267.429206,63.2289044 L249.483464,63.2289044 L249.483464,45.9106358 L238.063446,45.9106358 L238.063446,63.2289044 L229.153322,63.2289044 L229.153322,72.6410069 L238.063446,72.6410069 L238.063446,113.175795 C238.063446,119.868846 239.653045,124.679476 242.832244,127.607686 C246.011444,130.535895 250.780242,132 257.13864,132 L257.13864,132 L267.429206,132 Z M292.65364,132 L292.65364,93.9751059 C292.65364,86.7800764 294.431482,81.3001412 297.987165,77.5353002 C301.542848,73.7704592 306.332563,71.8880387 312.356308,71.8880387 C318.296391,71.8880387 322.981526,73.7077119 326.411715,77.3470582 C329.841903,80.9864045 331.556997,86.2362661 331.556997,93.096643 L331.556997,93.096643 L331.556997,132 L342.85152,132 L342.85152,91.4652119 C342.85152,85.1068138 341.659321,79.7105417 339.274921,75.2763956 C336.890522,70.8422495 333.606744,67.51664 329.423587,65.299567 C325.240431,63.0824939 320.555295,61.9739574 315.368181,61.9739574 C310.432056,61.9739574 305.976994,62.9360834 302.002996,64.8603355 C298.028997,66.7845876 294.912545,69.5036394 292.65364,73.017491 L292.65364,73.017491 L292.65364,39.133922 L281.233623,39.133922 L281.233623,132 L292.65364,132 Z M391.292475,133.129452 C399.491462,133.129452 406.351839,131.05879 411.873605,126.917465 C417.395372,122.77614 421.07655,117.400783 422.917139,110.791396 L422.917139,110.791396 L410.618658,110.791396 C409.280048,114.6399 406.958396,117.71452 403.653703,120.015256 C400.349009,122.315992 396.228599,123.46636 391.292475,123.46636 C385.268729,123.46636 380.144362,121.563024 375.919374,117.756352 C371.694386,113.949679 369.372734,108.657986 368.954418,101.881272 L368.954418,101.881272 L423.921097,101.881272 C424.172086,99.4550411 424.297581,97.154305 424.297581,94.9790635 C424.297581,88.7043285 422.938055,83.0779828 420.219003,78.1000264 C417.499951,73.1220699 413.630531,69.2108184 408.610743,66.3662719 C403.590955,63.5217254 397.818199,62.0994521 391.292475,62.0994521 C384.599424,62.0994521 378.680257,63.5426412 373.534975,66.4290193 C368.389692,69.3153974 364.394777,73.4358067 361.550231,78.7902472 C358.705684,84.1446877 357.283411,90.3775912 357.283411,97.4889575 C357.283411,104.600324 358.747516,110.854143 361.675725,116.250415 C364.603935,121.646687 368.640681,125.808928 373.785964,128.737138 C378.931247,131.665347 384.76675,133.129452 391.292475,133.129452 Z M412.501079,92.5946642 L369.079913,92.5946642 C369.665555,86.0689398 371.987207,80.9654887 376.044869,77.2843108 C380.102531,73.6031329 385.01774,71.762544 390.790496,71.762544 C394.806326,71.762544 398.466588,72.5782596 401.771282,74.2096906 C405.075976,75.8411218 407.690449,78.225521 409.614701,81.3628886 C411.538953,84.5002561 412.501079,88.2441813 412.501079,92.5946642 L412.501079,92.5946642 Z M450.776962,132 L450.776962,94.6025794 C450.776962,80.7144993 457.177192,73.7704592 469.977651,73.7704592 L469.977651,73.7704592 L472.989524,73.7704592 L472.989524,61.9739574 C467.635084,61.9739574 463.096359,63.0615781 459.373349,65.2368196 C455.65034,67.4120611 452.784878,70.4657654 450.776962,74.3979327 L450.776962,74.3979327 L450.776962,63.2289044 L439.356945,63.2289044 L439.356945,132 L450.776962,132 Z M510.51244,133.129452 C515.448564,133.129452 519.819963,132.271905 523.626636,130.556811 C527.433308,128.841717 530.382434,126.478233 532.474012,123.46636 C534.56559,120.454488 535.61138,117.066131 535.61138,113.30129 C535.527716,109.118133 534.377348,105.729776 532.160275,103.136219 C529.943202,100.542662 527.286898,98.597494 524.191362,97.3007155 C521.095826,96.0039369 517.079996,94.6862425 512.143871,93.3476324 C508.211703,92.2600117 505.137083,91.2769699 502.92001,90.398507 C500.702937,89.520044 498.862348,88.3487602 497.398243,86.8846554 C495.934139,85.4205505 495.202086,83.5590458 495.202086,81.3001412 C495.202086,78.4555947 496.415202,76.1548585 498.841432,74.3979327 C501.267663,72.6410069 504.530526,71.762544 508.630019,71.762544 C513.064165,71.762544 516.598933,72.8501647 519.234321,75.0254062 C521.86971,77.2006477 523.312899,80.0870258 523.563888,83.6845405 L523.563888,83.6845405 L534.983906,83.6845405 C534.649254,76.9914898 532.13936,71.7207124 527.454224,67.8722083 C522.769089,64.0237042 516.619848,62.0994521 509.006503,62.0994521 C504.070378,62.0994521 499.678064,62.9569992 495.82956,64.6720935 C491.981056,66.3871877 489.011014,68.7088396 486.919436,71.6370493 C484.827858,74.565259 483.782068,77.7862896 483.782068,81.3001412 C483.782068,85.7342873 484.932437,89.3108862 487.233173,92.029938 C489.533909,94.7489899 492.294792,96.7987366 495.515823,98.1791784 C498.736854,99.5596201 502.899094,100.919146 508.002546,102.257756 C513.607976,103.680029 517.749301,105.123218 520.426521,106.587323 C523.103741,108.051428 524.442351,110.289417 524.442351,113.30129 C524.442351,116.229499 523.187404,118.65573 520.67751,120.579982 C518.167616,122.504234 514.737428,123.46636 510.386945,123.46636 C505.701809,123.46636 501.916053,122.37874 499.029675,120.203498 C496.143296,118.028257 494.532781,115.225542 494.198129,111.795353 L494.198129,111.795353 L482.401627,111.795353 C482.652616,115.97851 483.991226,119.680604 486.417457,122.901634 C488.843688,126.122665 492.148382,128.632559 496.331538,130.431316 C500.514695,132.230074 505.241662,133.129452 510.51244,133.129452 Z" id="Feathers"></path>
            </g>
            <path d="M107.78,7.74 C163.07,7.74 207.9,52.56 207.9,107.86 C207.9,163.16 163.07,207.98 107.78,207.98 C52.49,207.98 7.66,163.16 7.66,107.86 C7.66,52.56 52.49,7.74 107.78,7.74 M107.78,0.08 C48.35,0.08 0,48.43 0,107.86 C0,167.29 48.35,215.64 107.78,215.64 C167.21,215.64 215.56,167.29 215.56,107.86 C215.56,48.43 167.21,0.08 107.78,0.08 M125.32,21.57 C116.54,19.97 95.3,52.23 88.28,71.87 C87.75,73.36 86.52,78.82 86.52,80.25 C86.52,80.25 92.02,92.08 93.55,94.86 C91,93.53 85.7,83.28 85.7,83.28 C83.15,88.15 80.7,110.51 81.49,114.66 C81.49,114.66 87.18,123.13 89.39,125.25 C86.36,124.24 81.25,117.37 81.25,117.37 C80.29,120.32 80.48,126.47 80.93,128.55 C84.76,134.14 89.87,134.78 89.87,134.78 C89.87,134.78 84.28,190.51 92.74,194.66 C98.01,193.54 99.29,132.39 99.29,132.39 C99.29,132.39 105.68,132.87 107.11,131.27 C110.36,129.03 117.91,105.82 118.02,102.47 C118.02,102.47 109.25,104.11 104.98,105.77 C108.2,102.57 118.49,100.42 118.49,100.42 C121.28,97.07 127.16,74.28 127.75,67.25 C127.9,65.49 128.24,63.33 127.98,60.18 C127.98,60.18 119.61,62.01 117.86,61.38 C119.63,61.18 128.19,57.89 128.19,57.89 C129.71,44.25 130.18,22.46 125.32,21.57 L125.32,21.57 Z M94.69,166.14 C94.02,182.56 93.6,187.19 92.91,191.06 C92.59,191.78 92.27,191.9 91.95,190.98 C89.02,177.51 89.24,76.1 122.61,29.95 C103.2,65.4 94.37,133.41 94.69,166.14 L94.69,166.14 Z" id="isotype" fill="#F2F4FA" fill-rule="nonzero"></path>
        </g>
    </g>
</svg>
